; generated by PrusaSlicer 2.4.2+win64 on 2022-08-15 at 11:05:32 UTC


;
;
; 

; external perimeters extrusion width = 0.45mm
; perimeters extrusion width = 0.45mm
; infill extrusion width = 0.45mm
; solid infill extrusion width = 0.45mm
; top infill extrusion width = 0.40mm
; first layer extrusion width = 0.42mm

M73 P0 R44
M73 Q0 S45
M201 X1000 Y1000 Z200 E5000 ; sets maximum accelerations, mm/sec^2
M203 X200 Y200 Z12 E120 ; sets maximum feedrates, mm / sec
M204 P1250 R1250 T1250 ; sets acceleration (P, T) and retract acceleration (R), mm/sec^2
M205 X8.00 Y8.00 Z0.40 E4.50 ; sets the jerk limits, mm/sec
M205 S0 T0 ; sets the minimum extruding and travel feed rate, mm/sec
M107
;TYPE:Custom
M862.3 P "MK3S" ; printer model check
M862.1 P0.4 ; nozzle diameter check
M115 U3.11.0 ; tell printer latest fw version
G90 ; use absolute coordinates
M83 ; extruder relative mode
M104 S240 ; set extruder temp
M140 S85 ; set bed temp
M190 S85 ; wait for bed temp
M109 S240 ; wait for extruder temp
G28 W ; home all without mesh bed level
G80 ; mesh bed leveling
G1 Z0.2 F720
G1 Y-3 F1000 ; go outside print area
G92 E0
G1 X60 E9 F1000 ; intro line
G1 X100 E12.5 F1000 ; intro line
G92 E0
M221 S95

; Don't change E values below. Excessive value can damage the printer.
M907 E430 ; set extruder motor current
G21 ; set units to millimeters
G90 ; use absolute coordinates
M83 ; use relative distances for extrusion
M900 K0.08 ; Filament gcode LA 1.5
M900 K45 ; Filament gcode LA 1.0
M107
;LAYER_CHANGE
;Z:0.2
;HEIGHT:0.2
;BEFORE_LAYER_CHANGE
G92 E0.0
;0.2


G1 E-1 F2100
G1 Z.2 F720
;AFTER_LAYER_CHANGE
;0.2
G1 Z.4
G1 X62.724 Y58.977 F10800
G1 Z.2 F720
G1 E1 F2100
M204 S800
;TYPE:Skirt/Brim
;WIDTH:0.42
G1 F1200
G1 X63.851 Y57.78 E.05154
G1 X66.245 Y55.748 E.09845
G1 X67.875 Y54.625 E.06209
G1 X69.536 Y53.659 E.06022
G1 X71.798 Y52.595 E.0784
G1 X73.6 Y51.931 E.06022
G1 X75.505 Y51.39 E.06208
G1 X77.4 Y51.007 E.06064
G1 X79.872 Y50.727 E.07798
G1 X81.851 Y50.677 E.06209
G1 X84.347 Y50.834 E.0784
G1 X86.304 Y51.131 E.06209
G1 X88.734 Y51.723 E.0784
G1 X90.554 Y52.337 E.06022
G1 X92.376 Y53.112 E.06208
G1 X94.582 Y54.289 E.0784
G1 X96.24 Y55.371 E.06209
G1 X98.206 Y56.916 E.0784
G1 X99.195 Y57.821 E.04202
G1 X100.525 Y59.206 E.06021
G1 X112.331 Y73.114 E.57199
G1 X112.895 Y74.652 E.05135
G1 X112.895 Y77.652 E.09406
G1 X112.331 Y79.189 E.05135
G1 X100.927 Y92.636 E.55283
G1 X99.152 Y94.523 E.08123
G1 X96.758 Y96.555 E.09845
G1 X95.127 Y97.678 E.06209
G1 X93.467 Y98.644 E.06022
G1 X91.204 Y99.708 E.0784
G1 X89.402 Y100.372 E.06022
G1 X87.498 Y100.913 E.06208
G1 X85.602 Y101.296 E.06064
G1 X83.131 Y101.576 E.07798
G1 X81.151 Y101.626 E.06209
G1 X78.656 Y101.469 E.0784
G1 X76.698 Y101.172 E.06209
G1 X74.268 Y100.58 E.0784
G1 X72.393 Y99.945 E.06209
G1 X70.105 Y98.937 E.0784
G1 X68.369 Y97.983 E.06208
G1 X66.762 Y96.932 E.06022
G1 X64.796 Y95.387 E.0784
G1 X63.808 Y94.482 E.04202
G1 X62.481 Y93.101 E.06005
G1 X50.672 Y79.189 E.57216
G1 X50.107 Y77.652 E.05135
G1 X50.107 Y74.652 E.09406
G1 X50.672 Y73.114 E.05135
G1 X62.076 Y59.667 E.55283
G1 X62.683 Y59.021 E.02781
M204 S1000
; printing object TorchCarrier.stl id:0 copy 0
;WIPE_START
G1 F8640
G1 X63.851 Y57.78 E-.39343
G1 X65.688 Y56.22 E-.55657
;WIPE_END
G1 E-.05 F2100
G1 Z.4 F720
G1 X67.452 Y63.279 F10800
G1 Z.2 F720
G1 E1 F2100
M204 S800
;TYPE:Perimeter
G1 F1200
G1 X68.281 Y62.423 E.03735
G1 X68.987 Y61.776 E.03004
G1 X69.725 Y61.165 E.03004
G1 X70.493 Y60.592 E.03003
G1 X71.289 Y60.059 E.03003
G1 X72.11 Y59.566 E.03004
M73 Q0 S44
G1 X72.955 Y59.115 E.03003
G1 X73.822 Y58.707 E.03004
G1 X74.708 Y58.344 E.03004
G1 X75.612 Y58.025 E.03004
G1 X76.53 Y57.752 E.03004
G1 X77.46 Y57.525 E.03004
G1 X78.401 Y57.346 E.03004
G1 X79.35 Y57.214 E.03004
G1 X80.304 Y57.13 E.03003
G1 X81.258 Y57.093 E.02993
G1 X82.694 Y57.129 E.04504
G1 X83.652 Y57.214 E.03015
G1 X84.601 Y57.346 E.03004
G1 X85.542 Y57.525 E.03004
G1 X86.473 Y57.752 E.03004
G1 X87.391 Y58.025 E.03004
G1 X88.294 Y58.344 E.03003
G1 X89.18 Y58.707 E.03004
G1 X90.047 Y59.115 E.03004
G1 X90.892 Y59.566 E.03003
G1 X91.714 Y60.059 E.03004
G1 X92.51 Y60.593 E.03004
G1 X93.278 Y61.165 E.03003
G1 X94.015 Y61.776 E.03003
G1 X94.722 Y62.423 E.03004
G1 X95.395 Y63.104 E.03004
G1 X96.033 Y63.819 E.03004
G1 X96.634 Y64.565 E.03003
G1 X97.195 Y65.337 E.02993
G1 X97.965 Y66.549 E.04504
G1 X98.429 Y67.392 E.03015
G1 X98.847 Y68.254 E.03003
G1 X99.222 Y69.135 E.03004
G1 X99.553 Y70.034 E.03003
G1 X99.837 Y70.949 E.03004
G1 X100.075 Y71.877 E.03003
G1 X100.267 Y72.816 E.03004
G1 X100.411 Y73.763 E.03004
G1 X100.507 Y74.716 E.03004
G1 X100.555 Y75.673 E.03003
G1 X100.555 Y76.631 E.03004
G1 X100.507 Y77.587 E.03003
G1 X100.41 Y78.541 E.03004
G1 X100.267 Y79.487 E.03003
G1 X100.075 Y80.426 E.03003
G1 X99.838 Y81.351 E.02994
G1 X99.392 Y82.723 E.04525
G1 X99.04 Y83.611 E.02993
G1 X98.643 Y84.483 E.03004
G1 X98.203 Y85.334 E.03003
G1 X97.721 Y86.161 E.03004
G1 X97.197 Y86.964 E.03004
G1 X96.634 Y87.738 E.03003
G1 X96.033 Y88.484 E.03004
G1 X95.395 Y89.199 E.03003
G1 X94.722 Y89.88 E.03004
G1 X94.015 Y90.527 E.03004
G1 X93.277 Y91.138 E.03004
G1 X92.51 Y91.711 E.03003
G1 X91.714 Y92.244 E.03003
G1 X90.892 Y92.737 E.03004
G1 X90.047 Y93.188 E.03003
G1 X89.18 Y93.596 E.03004
G1 X88.294 Y93.959 E.03004
G1 X87.391 Y94.278 E.03004
G1 X86.473 Y94.551 E.03004
G1 X85.542 Y94.778 E.03004
G1 X84.601 Y94.957 E.03004
G1 X83.652 Y95.089 E.03004
G1 X82.698 Y95.173 E.03004
G1 X81.737 Y95.21 E.03015
G1 X80.308 Y95.174 E.04482
G1 X79.35 Y95.089 E.03015
G1 X78.401 Y94.957 E.03004
G1 X77.46 Y94.778 E.03004
G1 X76.53 Y94.551 E.03004
G1 X75.611 Y94.278 E.03004
G1 X74.708 Y93.959 E.03003
G1 X73.822 Y93.596 E.03004
G1 X72.955 Y93.188 E.03004
G1 X72.11 Y92.737 E.03003
G1 X71.289 Y92.244 E.03004
G1 X70.493 Y91.71 E.03004
G1 X69.725 Y91.138 E.03003
G1 X68.987 Y90.527 E.03003
G1 X68.281 Y89.88 E.03004
G1 X67.607 Y89.199 E.03004
G1 X66.969 Y88.484 E.03004
G1 X66.368 Y87.738 E.03003
G1 X65.806 Y86.965 E.02997
G1 X65.037 Y85.754 E.045
G1 X64.574 Y84.911 E.03015
G1 X64.155 Y84.049 E.03003
G1 X63.78 Y83.168 E.03004
G1 X63.45 Y82.269 E.03003
G1 X63.165 Y81.354 E.03004
G1 X62.927 Y80.426 E.03003
G1 X62.736 Y79.487 E.03004
G1 X62.592 Y78.54 E.03004
G1 X62.496 Y77.587 E.03004
G1 X62.448 Y76.63 E.03003
G1 X62.448 Y75.672 E.03004
G1 X62.496 Y74.716 E.03003
G1 X62.592 Y73.762 E.03004
G1 X62.736 Y72.816 E.03003
G1 X62.927 Y71.877 E.03003
G1 X63.165 Y70.952 E.02994
G1 X63.611 Y69.58 E.04525
G1 X63.962 Y68.692 E.02993
G1 X64.359 Y67.82 E.03004
G1 X64.799 Y66.969 E.03003
G1 X65.282 Y66.142 E.03004
G1 X65.805 Y65.339 E.03004
G1 X66.368 Y64.565 E.03003
G1 X66.97 Y63.819 E.03004
G1 X67.412 Y63.323 E.02083
M204 S1000
G1 X67.733 Y63.53 F10800
M204 S800
;TYPE:External perimeter
G1 F1200
G1 X68.542 Y62.694 E.03646
G1 X69.235 Y62.06 E.02944
G1 X69.958 Y61.462 E.02944
G1 X70.711 Y60.9 E.02944
G1 X71.491 Y60.377 E.02944
G1 X72.296 Y59.894 E.02944
G1 X73.124 Y59.452 E.02944
G1 X73.974 Y59.053 E.02944
G1 X74.843 Y58.696 E.02944
G1 X75.728 Y58.384 E.02944
G1 X76.628 Y58.116 E.02944
G1 X77.54 Y57.894 E.02944
G1 X78.463 Y57.718 E.02944
G1 X79.393 Y57.588 E.02944
G1 X80.328 Y57.506 E.02944
G1 X81.261 Y57.471 E.02926
G1 X82.673 Y57.506 E.04429
G1 X83.61 Y57.588 E.02948
G1 X84.54 Y57.718 E.02944
G1 X85.462 Y57.894 E.02945
G1 X86.375 Y58.116 E.02944
G1 X87.275 Y58.384 E.02944
G1 X88.16 Y58.696 E.02943
G1 X89.028 Y59.053 E.02944
G1 X89.878 Y59.453 E.02945
G1 X90.707 Y59.894 E.02943
G1 X91.512 Y60.377 E.02944
G1 X92.292 Y60.9 E.02945
G1 X93.044 Y61.462 E.02944
G1 X93.768 Y62.06 E.02943
G1 X94.46 Y62.694 E.02944
G1 X95.12 Y63.363 E.02944
G1 X95.745 Y64.063 E.02944
G1 X96.335 Y64.794 E.02944
G1 X96.883 Y65.549 E.02926
G1 X97.641 Y66.741 E.04429
G1 X98.094 Y67.565 E.02948
G1 X98.504 Y68.41 E.02944
G1 X98.872 Y69.274 E.02944
G1 X99.195 Y70.156 E.02944
G1 X99.474 Y71.052 E.02944
G1 X99.708 Y71.962 E.02944
G1 X99.895 Y72.882 E.02944
G1 X100.036 Y73.81 E.02944
G1 X100.131 Y74.744 E.02945
G1 X100.178 Y75.682 E.02943
G1 X100.178 Y76.621 E.02945
G1 X100.131 Y77.559 E.02943
G1 X100.036 Y78.493 E.02945
G1 X99.895 Y79.421 E.02943
G1 X99.708 Y80.341 E.02944
G1 X99.476 Y81.246 E.02927
G1 X99.037 Y82.596 E.04451
G1 X98.693 Y83.463 E.02926
G1 X98.304 Y84.318 E.02945
G1 X97.873 Y85.152 E.02943
G1 X97.4 Y85.963 E.02945
G1 X96.887 Y86.75 E.02944
G1 X96.335 Y87.509 E.02943
G1 X95.745 Y88.24 E.02945
G1 X95.12 Y88.94 E.02943
G1 X94.46 Y89.609 E.02944
G1 X93.768 Y90.243 E.02944
G1 X93.044 Y90.841 E.02944
G1 X92.292 Y91.403 E.02944
G1 X91.512 Y91.926 E.02944
G1 X90.707 Y92.409 E.02944
G1 X89.878 Y92.851 E.02944
G1 X89.028 Y93.25 E.02944
G1 X88.16 Y93.607 E.02944
G1 X87.274 Y93.919 E.02944
G1 X86.374 Y94.187 E.02944
G1 X85.462 Y94.409 E.02944
G1 X84.54 Y94.585 E.02944
G1 X83.61 Y94.715 E.02944
G1 X82.674 Y94.797 E.02944
G1 X81.735 Y94.832 E.02948
G1 X80.329 Y94.797 E.04407
G1 X79.393 Y94.715 E.02948
G1 X78.463 Y94.585 E.02944
G1 X77.54 Y94.409 E.02945
G1 X76.628 Y94.187 E.02944
G1 X75.728 Y93.919 E.02944
G1 X74.843 Y93.607 E.02943
G1 X73.974 Y93.25 E.02944
G1 X73.124 Y92.85 E.02945
G1 X72.296 Y92.409 E.02943
G1 X71.491 Y91.926 E.02944
G1 X70.711 Y91.403 E.02945
G1 X69.958 Y90.841 E.02944
G1 X69.235 Y90.243 E.02943
G1 X68.542 Y89.609 E.02944
G1 X67.882 Y88.94 E.02944
G1 X67.257 Y88.24 E.02944
G1 X66.668 Y87.509 E.02944
G1 X66.118 Y86.753 E.0293
G1 X65.362 Y85.562 E.04426
G1 X64.909 Y84.738 E.02948
G1 X64.498 Y83.893 E.02944
G1 X64.131 Y83.029 E.02944
G1 X63.807 Y82.147 E.02944
G1 X63.528 Y81.251 E.02944
G1 X63.295 Y80.341 E.02944
M73 P1 R44
G1 X63.107 Y79.421 E.02944
M73 Q1 S44
G1 X62.966 Y78.493 E.02944
G1 X62.872 Y77.559 E.02945
G1 X62.825 Y76.621 E.02943
G1 X62.825 Y75.682 E.02945
G1 X62.872 Y74.744 E.02943
G1 X62.966 Y73.81 E.02945
G1 X63.107 Y72.882 E.02943
G1 X63.295 Y71.962 E.02944
G1 X63.527 Y71.057 E.02927
G1 X63.965 Y69.707 E.04451
G1 X64.309 Y68.84 E.02926
G1 X64.698 Y67.985 E.02945
G1 X65.13 Y67.151 E.02943
G1 X65.603 Y66.34 E.02945
G1 X66.116 Y65.553 E.02944
G1 X66.668 Y64.794 E.02943
G1 X67.257 Y64.063 E.02945
G1 X67.693 Y63.574 E.02053
M204 S1000
G1 X67.615 Y63.148 F10800
;WIPE_START
G1 F8640
G1 X68.542 Y62.694 E-.28233
G1 X69.235 Y62.06 E-.21681
G1 X69.958 Y61.462 E-.21682
G1 X70.711 Y60.9 E-.21681
G1 X70.773 Y60.859 E-.01723
;WIPE_END
G1 E-.05 F2100
G1 Z.4 F720
G1 X103.82 Y75.439 F10800
G1 Z.2 F720
G1 E1 F2100
M204 S800
;TYPE:Perimeter
G1 F1200
G1 X108.603 Y75.439 E.14999
G1 X108.603 Y76.864 E.04471
G1 X103.82 Y76.864 E.14999
G1 X103.701 Y78.394 E.0481
G1 X103.639 Y78.944 E.01737
G1 X103.47 Y80.057 E.03528
G1 X103.246 Y81.156 E.03516
G1 X102.967 Y82.242 E.03516
G1 X102.634 Y83.313 E.03516
G1 X102.247 Y84.365 E.03516
G1 X101.808 Y85.397 E.03516
G1 X101.318 Y86.406 E.03516
G1 X100.778 Y87.389 E.03516
G1 X100.189 Y88.343 E.03516
G1 X99.553 Y89.267 E.03516
G1 X98.871 Y90.157 E.03516
G1 X98.143 Y91.015 E.03528
G1 X97.769 Y91.423 E.01735
G1 X96.979 Y92.224 E.03528
G1 X96.151 Y92.981 E.03516
G1 X95.287 Y93.696 E.03516
G1 X94.385 Y94.368 E.03528
G1 X93.93 Y94.682 E.01735
G1 X92.98 Y95.285 E.03528
G1 X92.001 Y95.84 E.03528
G1 X91.509 Y96.094 E.01735
G1 X90.491 Y96.573 E.03528
G1 X89.45 Y97 E.03528
G1 X88.931 Y97.191 E.01735
G1 X87.857 Y97.54 E.03539
G1 X87.325 Y97.691 E.01735
G1 X86.232 Y97.957 E.03528
G1 X85.13 Y98.167 E.03516
G1 X84.019 Y98.322 E.03516
G1 X82.899 Y98.421 E.03528
G1 X82.346 Y98.448 E.01735
G1 X81.221 Y98.462 E.03528
G1 X80.1 Y98.42 E.03516
G1 X78.983 Y98.322 E.03516
G1 X77.869 Y98.167 E.03528
G1 X77.324 Y98.07 E.01735
G1 X76.224 Y97.831 E.03528
G1 X75.142 Y97.539 E.03516
G1 X74.072 Y97.191 E.03528
G1 X73.552 Y97 E.01735
G1 X72.511 Y96.573 E.03528
G1 X71.493 Y96.094 E.03528
G1 X71.002 Y95.84 E.01735
G1 X70.023 Y95.285 E.03528
G1 X69.076 Y94.684 E.03516
G1 X68.16 Y94.037 E.03516
G1 X67.276 Y93.341 E.03528
G1 X66.854 Y92.983 E.01735
G1 X66.024 Y92.224 E.03528
G1 X65.236 Y91.426 E.03516
G1 X64.489 Y90.589 E.03516
G1 X63.785 Y89.716 E.03516
G1 X63.126 Y88.809 E.03516
G1 X62.513 Y87.87 E.03516
G1 X61.948 Y86.901 E.03516
G1 X61.433 Y85.905 E.03516
G1 X60.968 Y84.884 E.03516
G1 X60.556 Y83.841 E.03517
G1 X60.196 Y82.779 E.03516
G1 X59.89 Y81.7 E.03516
G1 X59.638 Y80.608 E.03516
G1 X59.442 Y79.503 E.03516
G1 X59.301 Y78.39 E.03518
G1 X59.183 Y76.864 E.04799
G1 X54.399 Y76.864 E.14999
G1 X54.399 Y75.439 E.04471
G1 X59.183 Y75.439 E.14999
G1 X59.301 Y73.909 E.0481
G1 X59.364 Y73.359 E.01737
G1 X59.533 Y72.246 E.03528
G1 X59.757 Y71.147 E.03516
G1 X60.036 Y70.061 E.03516
G1 X60.369 Y68.99 E.03516
G1 X60.755 Y67.938 E.03516
G1 X61.194 Y66.906 E.03516
G1 X61.685 Y65.897 E.03516
G1 X62.225 Y64.914 E.03516
G1 X62.814 Y63.96 E.03516
G1 X63.45 Y63.036 E.03516
G1 X64.132 Y62.146 E.03516
G1 X64.86 Y61.288 E.03528
G1 X65.233 Y60.88 E.01735
G1 X66.024 Y60.079 E.03528
G1 X66.851 Y59.322 E.03516
G1 X67.715 Y58.607 E.03516
G1 X68.617 Y57.935 E.03528
G1 X69.073 Y57.621 E.01735
G1 X70.023 Y57.018 E.03528
G1 X71.002 Y56.463 E.03528
G1 X71.493 Y56.209 E.01735
G1 X72.511 Y55.73 E.03528
G1 X73.549 Y55.304 E.03516
G1 X74.606 Y54.931 E.03516
G1 X75.681 Y54.611 E.03516
G1 X76.771 Y54.346 E.03516
G1 X77.876 Y54.135 E.03528
G1 X78.982 Y53.981 E.035
G1 X80.1 Y53.883 E.03521
G1 X81.225 Y53.84 E.03528
G1 X81.78 Y53.84 E.01742
G1 X82.902 Y53.883 E.03521
G1 X84.019 Y53.981 E.03516
G1 X85.134 Y54.136 E.03528
G1 X85.682 Y54.234 E.01747
G1 X86.228 Y54.345 E.01747
G1 X87.321 Y54.611 E.03528
G1 X88.396 Y54.931 E.03516
G1 X89.454 Y55.304 E.03516
G1 X90.491 Y55.73 E.03516
G1 X91.509 Y56.209 E.03528
G1 X92.001 Y56.463 E.01735
G1 X92.983 Y57.02 E.03539
G1 X93.454 Y57.31 E.01735
G1 X94.388 Y57.937 E.03528
G1 X95.287 Y58.607 E.03516
G1 X96.151 Y59.322 E.03516
G1 X96.979 Y60.079 E.03516
G1 X97.767 Y60.877 E.03516
G1 X98.513 Y61.714 E.03516
G1 X99.217 Y62.587 E.03516
G1 X99.876 Y63.494 E.03516
G1 X100.489 Y64.433 E.03516
G1 X101.054 Y65.402 E.03517
G1 X101.569 Y66.398 E.03516
G1 X102.034 Y67.419 E.03516
G1 X102.447 Y68.462 E.03516
G1 X102.807 Y69.524 E.03516
G1 X103.113 Y70.603 E.03516
G1 X103.364 Y71.695 E.03516
G1 X103.561 Y72.8 E.03516
G1 X103.701 Y73.913 E.03518
G1 X103.815 Y75.379 E.04611
M204 S1000
G1 X104.169 Y75.062 F10800
M204 S800
;TYPE:External perimeter
G1 F1200
G1 X108.98 Y75.062 E.15087
G1 X108.98 Y77.242 E.06835
G1 X104.169 Y77.242 E.15087
G1 X104.077 Y78.43 E.03737
G1 X104.012 Y78.994 E.0178
G1 X103.841 Y80.123 E.0358
G1 X103.613 Y81.24 E.03576
G1 X103.33 Y82.345 E.03575
G1 X102.991 Y83.434 E.03576
G1 X102.598 Y84.504 E.03576
G1 X102.151 Y85.554 E.03576
G1 X101.653 Y86.579 E.03576
G1 X101.104 Y87.579 E.03576
G1 X100.505 Y88.549 E.03576
G1 X99.858 Y89.488 E.03576
G1 X99.164 Y90.394 E.03576
G1 X98.426 Y91.264 E.0358
G1 X98.042 Y91.683 E.0178
G1 X97.24 Y92.495 E.0358
G1 X96.399 Y93.265 E.03576
G1 X95.52 Y93.992 E.03576
G1 X94.605 Y94.675 E.0358
G1 X94.138 Y94.997 E.0178
G1 X93.174 Y95.609 E.0358
G1 X92.18 Y96.171 E.0358
G1 X91.676 Y96.432 E.0178
G1 X90.643 Y96.918 E.0358
G1 X89.587 Y97.352 E.0358
G1 X89.054 Y97.547 E.0178
G1 X87.967 Y97.901 E.03584
G1 X87.421 Y98.056 E.0178
G1 X86.312 Y98.326 E.0358
G1 X85.191 Y98.539 E.03576
G1 X84.062 Y98.696 E.03576
G1 X82.925 Y98.797 E.0358
G1 X82.358 Y98.825 E.01779
G1 X81.216 Y98.84 E.0358
G1 X80.077 Y98.797 E.03576
G1 X78.941 Y98.696 E.03576
G1 X77.81 Y98.539 E.0358
G1 X77.251 Y98.44 E.0178
G1 X76.135 Y98.198 E.0358
G1 X75.034 Y97.9 E.03576
G1 X73.948 Y97.547 E.0358
G1 X73.415 Y97.352 E.0178
G1 X72.359 Y96.918 E.0358
G1 X71.326 Y96.432 E.0358
G1 X70.822 Y96.171 E.0178
G1 X69.829 Y95.609 E.0358
G1 X68.866 Y94.998 E.03576
G1 X67.935 Y94.339 E.03576
G1 X67.037 Y93.634 E.0358
G1 X66.604 Y93.266 E.0178
G1 X65.762 Y92.495 E.0358
G1 X64.961 Y91.684 E.03576
G1 X64.201 Y90.833 E.03576
G1 X63.486 Y89.945 E.03576
G1 X62.815 Y89.023 E.03575
G1 X62.192 Y88.068 E.03576
G1 X61.618 Y87.082 E.03576
G1 X61.094 Y86.07 E.03575
G1 X60.621 Y85.032 E.03575
G1 X60.201 Y83.971 E.03576
G1 X59.835 Y82.891 E.03575
G1 X59.524 Y81.794 E.03576
G1 X59.268 Y80.683 E.03576
G1 X59.069 Y79.56 E.03576
G1 X58.926 Y78.429 E.03576
G1 X58.834 Y77.242 E.03733
G1 X54.022 Y77.242 E.15087
G1 X54.022 Y75.062 E.06835
G1 X58.834 Y75.062 E.15087
