; generated by PrusaSlicer 2.4.2+win64 on 2022-08-15 at 11:16:11 UTC


;
;
; 

; external perimeters extrusion width = 0.45mm
; perimeters extrusion width = 0.45mm
; infill extrusion width = 0.45mm
; solid infill extrusion width = 0.45mm
; top infill extrusion width = 0.40mm
; first layer extrusion width = 0.42mm

M73 P0 R44
M73 Q0 S45
M201 X1000 Y1000 Z200 E5000 ; sets maximum accelerations, mm/sec^2
M203 X200 Y200 Z12 E120 ; sets maximum feedrates, mm / sec
M204 P1250 R1250 T1250 ; sets acceleration (P, T) and retract acceleration (R), mm/sec^2
M205 X8.00 Y8.00 Z0.40 E4.50 ; sets the jerk limits, mm/sec
M205 S0 T0 ; sets the minimum extruding and travel feed rate, mm/sec
M107
;TYPE:Custom
M862.3 P "MK3S" ; printer model check
M862.1 P0.4 ; nozzle diameter check
M115 U3.11.0 ; tell printer latest fw version
G90 ; use absolute coordinates
M83 ; extruder relative mode
M104 S240 ; set extruder temp
M140 S85 ; set bed temp
M190 S85 ; wait for bed temp
M109 S240 ; wait for extruder temp
G28 W ; home all without mesh bed level
G80 ; mesh bed leveling
G1 Z0.2 F720
G1 Y-3 F1000 ; go outside print area
G92 E0
G1 X60 E9 F1000 ; intro line
G1 X100 E12.5 F1000 ; intro line
G92 E0
M221 S95

; Don't change E values below. Excessive value can damage the printer.
M907 E430 ; set extruder motor current
G21 ; set units to millimeters
G90 ; use absolute coordinates
M83 ; use relative distances for extrusion
M900 K0.08 ; Filament gcode LA 1.5
M900 K45 ; Filament gcode LA 1.0
M107
;LAYER_CHANGE
;Z:0.2
;HEIGHT:0.2
;BEFORE_LAYER_CHANGE
G92 E0.0
;0.2


G1 E-1 F2100
G1 Z.2 F720
;AFTER_LAYER_CHANGE
;0.2
G1 Z.4
G1 X56.504 Y58.691 F10800
G1 Z.2 F720
G1 E1 F2100
M204 S800
;TYPE:Skirt/Brim
;WIDTH:0.42
G1 F1200
G1 X58.898 Y56.66 E.09845
G1 X60.529 Y55.536 E.06209
G1 X62.189 Y54.571 E.06022
G1 X64.452 Y53.506 E.0784
G1 X66.254 Y52.842 E.06022
G1 X68.158 Y52.302 E.06208
G1 X70.054 Y51.919 E.06064
G1 X72.525 Y51.638 E.07798
G1 X74.505 Y51.589 E.06209
G1 X77 Y51.746 E.0784
G1 X78.958 Y52.043 E.06209
G1 X81.388 Y52.634 E.0784
G1 X83.207 Y53.249 E.06022
G1 X85.029 Y54.024 E.06208
G1 X87.236 Y55.201 E.0784
G1 X88.894 Y56.283 E.06209
G1 X90.86 Y57.828 E.0784
G1 X91.849 Y58.733 E.04202
G1 X93.179 Y60.117 E.06021
G1 X104.984 Y74.026 E.57199
G1 X105.549 Y75.563 E.05135
G1 X105.549 Y78.563 E.09406
G1 X104.984 Y80.101 E.05135
G1 X93.58 Y93.548 E.55283
G1 X91.806 Y95.435 E.08123
G1 X89.412 Y97.467 E.09845
G1 X87.781 Y98.59 E.06209
G1 X86.121 Y99.555 E.06022
G1 X83.858 Y100.62 E.0784
G1 X82.056 Y101.284 E.06022
G1 X80.151 Y101.824 E.06208
G1 X78.256 Y102.208 E.06064
G1 X75.784 Y102.488 E.07798
G1 X73.805 Y102.538 E.06209
G1 X71.309 Y102.381 E.0784
G1 X69.352 Y102.083 E.06209
G1 X66.922 Y101.492 E.0784
G1 X65.047 Y100.856 E.06209
G1 X62.758 Y99.849 E.0784
G1 X61.023 Y98.895 E.06208
G1 X59.416 Y97.844 E.06022
G1 X57.45 Y96.299 E.0784
G1 X56.461 Y95.394 E.04202
G1 X55.134 Y94.013 E.06005
G1 X43.325 Y80.101 E.57216
G1 X42.761 Y78.563 E.05135
G1 X42.761 Y75.563 E.09406
G1 X43.325 Y74.026 E.05135
G1 X54.73 Y60.579 E.55283
G1 X56.463 Y58.735 E.07935
M204 S1000
; printing object TorchCarrier.stl id:0 copy 0
;WIPE_START
G1 F8640
G1 X58.898 Y56.66 E-.73876
G1 X59.652 Y56.141 E-.21124
;WIPE_END
G1 E-.05 F2100
G1 Z.4 F720
G1 X60.934 Y63.334 F10800
G1 Z.2 F720
G1 E1 F2100
M204 S800
;TYPE:Perimeter
G1 F1200
G1 X61.641 Y62.687 E.03004
G1 X62.379 Y62.077 E.03004
G1 X63.147 Y61.504 E.03003
G1 X63.942 Y60.971 E.03003
G1 X64.764 Y60.478 E.03004
G1 X65.609 Y60.027 E.03003
M73 Q0 S44
G1 X66.476 Y59.619 E.03004
G1 X67.362 Y59.255 E.03004
G1 X68.265 Y58.936 E.03004
G1 X69.183 Y58.663 E.03004
G1 X70.114 Y58.437 E.03004
G1 X71.055 Y58.257 E.03004
G1 X72.004 Y58.125 E.03004
G1 X72.958 Y58.041 E.03003
G1 X73.912 Y58.005 E.02993
G1 X75.348 Y58.041 E.04504
G1 X76.306 Y58.125 E.03015
G1 X77.255 Y58.257 E.03004
G1 X78.196 Y58.437 E.03004
G1 X79.127 Y58.663 E.03004
G1 X80.045 Y58.936 E.03004
G1 X80.948 Y59.255 E.03003
G1 X81.834 Y59.619 E.03004
G1 X82.701 Y60.027 E.03004
G1 X83.546 Y60.478 E.03003
G1 X84.368 Y60.971 E.03004
G1 X85.163 Y61.504 E.03004
G1 X85.931 Y62.077 E.03003
G1 X86.669 Y62.687 E.03003
G1 X87.376 Y63.334 E.03004
G1 X88.049 Y64.016 E.03004
G1 X88.687 Y64.731 E.03004
G1 X89.288 Y65.476 E.03003
G1 X89.849 Y66.248 E.02993
G1 X90.619 Y67.461 E.04504
G1 X91.082 Y68.304 E.03015
G1 X91.501 Y69.165 E.03003
G1 X91.876 Y70.047 E.03004
G1 X92.206 Y70.946 E.03003
G1 X92.491 Y71.861 E.03004
G1 X92.729 Y72.789 E.03003
G1 X92.92 Y73.727 E.03004
G1 X93.064 Y74.674 E.03004
G1 X93.16 Y75.628 E.03004
G1 X93.208 Y76.584 E.03003
G1 X93.208 Y77.542 E.03004
G1 X93.16 Y78.499 E.03003
G1 X93.064 Y79.452 E.03004
G1 X92.92 Y80.399 E.03003
G1 X92.729 Y81.338 E.03003
G1 X92.492 Y82.262 E.02994
G1 X92.046 Y83.635 E.04525
G1 X91.694 Y84.523 E.02993
G1 X91.297 Y85.395 E.03004
G1 X90.857 Y86.245 E.03003
G1 X90.374 Y87.073 E.03004
G1 X89.851 Y87.875 E.03004
G1 X89.288 Y88.65 E.03003
G1 X88.687 Y89.396 E.03004
G1 X88.049 Y90.11 E.03003
G1 X87.376 Y90.792 E.03004
G1 X86.669 Y91.439 E.03004
G1 X85.931 Y92.049 E.03004
G1 X85.163 Y92.622 E.03003
G1 X84.368 Y93.156 E.03003
G1 X83.546 Y93.648 E.03004
G1 X82.701 Y94.099 E.03003
G1 X81.834 Y94.507 E.03004
G1 X80.948 Y94.871 E.03004
G1 X80.045 Y95.19 E.03004
G1 X79.126 Y95.463 E.03004
G1 X78.196 Y95.689 E.03004
G1 X77.255 Y95.869 E.03004
G1 X76.306 Y96.001 E.03004
G1 X75.352 Y96.085 E.03004
G1 X74.391 Y96.121 E.03015
G1 X72.962 Y96.085 E.04482
G1 X72.004 Y96.001 E.03015
G1 X71.055 Y95.869 E.03004
G1 X70.114 Y95.689 E.03004
G1 X69.183 Y95.463 E.03004
G1 X68.265 Y95.19 E.03004
G1 X67.362 Y94.871 E.03003
G1 X66.476 Y94.507 E.03004
G1 X65.609 Y94.099 E.03004
G1 X64.764 Y93.648 E.03003
G1 X63.942 Y93.156 E.03004
G1 X63.146 Y92.622 E.03004
G1 X62.379 Y92.049 E.03003
G1 X61.641 Y91.439 E.03003
G1 X60.934 Y90.792 E.03004
G1 X60.261 Y90.11 E.03004
G1 X59.623 Y89.396 E.03004
G1 X59.022 Y88.65 E.03003
G1 X58.46 Y87.877 E.02997
G1 X57.691 Y86.665 E.045
G1 X57.227 Y85.823 E.03015
G1 X56.809 Y84.961 E.03003
G1 X56.434 Y84.079 E.03004
G1 X56.104 Y83.18 E.03003
G1 X55.819 Y82.265 E.03004
G1 X55.581 Y81.338 E.03003
G1 X55.39 Y80.399 E.03004
G1 X55.246 Y79.452 E.03004
G1 X55.149 Y78.499 E.03004
G1 X55.101 Y77.542 E.03003
G1 X55.101 Y76.584 E.03004
G1 X55.149 Y75.627 E.03003
G1 X55.246 Y74.674 E.03004
G1 X55.39 Y73.727 E.03003
G1 X55.581 Y72.789 E.03003
G1 X55.818 Y71.864 E.02994
G1 X56.264 Y70.491 E.04525
G1 X56.616 Y69.604 E.02993
G1 X57.013 Y68.732 E.03004
G1 X57.453 Y67.881 E.03003
G1 X57.935 Y67.053 E.03004
G1 X58.459 Y66.251 E.03004
G1 X59.022 Y65.476 E.03003
G1 X59.623 Y64.73 E.03004
G1 X60.261 Y64.016 E.03003
G1 X60.892 Y63.377 E.02815
M204 S1000
G1 X61.196 Y63.606 F10800
M204 S800
;TYPE:External perimeter
G1 F1200
G1 X61.888 Y62.972 E.02944
G1 X62.612 Y62.373 E.02944
G1 X63.364 Y61.812 E.02944
G1 X64.144 Y61.289 E.02944
G1 X64.95 Y60.806 E.02944
G1 X65.778 Y60.364 E.02944
G1 X66.628 Y59.964 E.02944
G1 X67.496 Y59.608 E.02944
G1 X68.382 Y59.295 E.02944
G1 X69.282 Y59.027 E.02944
G1 X70.194 Y58.805 E.02944
G1 X71.116 Y58.629 E.02944
G1 X72.046 Y58.5 E.02944
G1 X72.982 Y58.418 E.02944
G1 X73.914 Y58.382 E.02926
G1 X75.327 Y58.417 E.04429
G1 X76.263 Y58.5 E.02948
G1 X77.193 Y58.629 E.02944
G1 X78.116 Y58.805 E.02945
G1 X79.028 Y59.028 E.02944
G1 X79.928 Y59.295 E.02944
G1 X80.813 Y59.608 E.02943
G1 X81.682 Y59.964 E.02944
G1 X82.532 Y60.364 E.02945
G1 X83.36 Y60.806 E.02943
G1 X84.165 Y61.289 E.02944
G1 X84.945 Y61.812 E.02945
G1 X85.698 Y62.374 E.02944
G1 X86.421 Y62.972 E.02943
G1 X87.114 Y63.606 E.02944
G1 X87.774 Y64.274 E.02944
G1 X88.399 Y64.975 E.02944
G1 X88.988 Y65.706 E.02944
G1 X89.537 Y66.46 E.02926
G1 X90.294 Y67.653 E.04429
G1 X90.747 Y68.477 E.02948
G1 X91.158 Y69.322 E.02944
G1 X91.525 Y70.186 E.02944
G1 X91.849 Y71.067 E.02944
G1 X92.128 Y71.964 E.02944
G1 X92.361 Y72.873 E.02944
G1 X92.549 Y73.793 E.02944
G1 X92.69 Y74.722 E.02944
G1 X92.784 Y75.656 E.02945
G1 X92.831 Y76.594 E.02943
G1 X92.831 Y77.533 E.02945
G1 X92.784 Y78.47 E.02943
G1 X92.69 Y79.405 E.02945
G1 X92.549 Y80.333 E.02943
G1 X92.361 Y81.253 E.02944
G1 X92.129 Y82.157 E.02927
G1 X91.691 Y83.507 E.04451
G1 X91.347 Y84.375 E.02926
G1 X90.958 Y85.23 E.02945
G1 X90.526 Y86.063 E.02943
G1 X90.053 Y86.875 E.02945
G1 X89.54 Y87.661 E.02944
G1 X88.989 Y88.421 E.02943
G1 X88.399 Y89.152 E.02945
G1 X87.774 Y89.852 E.02943
G1 X87.114 Y90.52 E.02944
G1 X86.421 Y91.154 E.02944
G1 X85.698 Y91.753 E.02944
G1 X84.945 Y92.314 E.02944
G1 X84.165 Y92.837 E.02944
G1 X83.36 Y93.32 E.02944
G1 X82.532 Y93.762 E.02944
G1 X81.682 Y94.162 E.02944
G1 X80.813 Y94.519 E.02944
G1 X79.928 Y94.831 E.02944
G1 X79.028 Y95.099 E.02944
G1 X78.116 Y95.321 E.02944
G1 X77.193 Y95.497 E.02944
G1 X76.263 Y95.626 E.02944
G1 X75.328 Y95.709 E.02944
G1 X74.388 Y95.744 E.02948
G1 X72.983 Y95.709 E.04407
G1 X72.046 Y95.626 E.02948
G1 X71.116 Y95.497 E.02944
G1 X70.194 Y95.321 E.02945
G1 X69.282 Y95.099 E.02944
G1 X68.381 Y94.831 E.02944
G1 X67.496 Y94.519 E.02943
G1 X66.628 Y94.162 E.02944
G1 X65.778 Y93.762 E.02945
G1 X64.95 Y93.32 E.02943
G1 X64.144 Y92.837 E.02944
G1 X63.364 Y92.314 E.02945
G1 X62.612 Y91.753 E.02944
G1 X61.888 Y91.154 E.02943
G1 X61.196 Y90.52 E.02944
G1 X60.536 Y89.852 E.02944
G1 X59.911 Y89.152 E.02944
G1 X59.321 Y88.421 E.02944
G1 X58.772 Y87.665 E.0293
G1 X58.015 Y86.473 E.04426
G1 X57.562 Y85.649 E.02948
G1 X57.152 Y84.805 E.02944
G1 X56.784 Y83.941 E.02944
G1 X56.461 Y83.059 E.02944
G1 X56.182 Y82.162 E.02944
G1 X55.948 Y81.253 E.02944
G1 X55.761 Y80.333 E.02944
M73 P1 R44
G1 X55.62 Y79.405 E.02944
G1 X55.526 Y78.47 E.02945
M73 Q1 S44
G1 X55.478 Y77.533 E.02943
G1 X55.478 Y76.593 E.02945
G1 X55.526 Y75.656 E.02943
G1 X55.62 Y74.721 E.02945
G1 X55.761 Y73.793 E.02943
G1 X55.948 Y72.873 E.02944
G1 X56.18 Y71.969 E.02927
G1 X56.619 Y70.619 E.04451
G1 X56.963 Y69.751 E.02926
G1 X57.352 Y68.897 E.02945
G1 X57.783 Y68.063 E.02943
G1 X58.256 Y67.251 E.02945
G1 X58.769 Y66.465 E.02944
G1 X59.321 Y65.706 E.02943
G1 X59.911 Y64.974 E.02945
G1 X60.536 Y64.274 E.02943
G1 X61.154 Y63.649 E.02756
M204 S1000
G1 X61.1 Y63.218 F10800
;WIPE_START
G1 F8640
G1 X61.888 Y62.972 E-.23065
G1 X62.612 Y62.373 E-.21682
G1 X63.364 Y61.812 E-.21681
G1 X64.144 Y61.289 E-.21681
G1 X64.4 Y61.136 E-.06892
;WIPE_END
G1 E-.05 F2100
G1 Z.4 F720
G1 X96.473 Y76.35 F10800
G1 Z.2 F720
G1 E1 F2100
M204 S800
;TYPE:Perimeter
G1 F1200
G1 X101.257 Y76.35 E.14999
G1 X101.257 Y77.776 E.04471
G1 X96.473 Y77.776 E.14999
G1 X96.355 Y79.306 E.0481
G1 X96.292 Y79.856 E.01737
G1 X96.123 Y80.968 E.03528
G1 X95.899 Y82.067 E.03516
G1 X95.62 Y83.153 E.03516
G1 X95.287 Y84.224 E.03516
G1 X94.901 Y85.277 E.03516
G1 X94.462 Y86.309 E.03516
G1 X93.972 Y87.318 E.03516
G1 X93.431 Y88.3 E.03516
G1 X92.842 Y89.255 E.03516
G1 X92.206 Y90.178 E.03516
G1 X91.525 Y91.069 E.03516
G1 X90.796 Y91.926 E.03528
G1 X90.423 Y92.335 E.01735
G1 X89.632 Y93.135 E.03528
G1 X88.805 Y93.893 E.03516
G1 X87.941 Y94.607 E.03516
G1 X87.039 Y95.28 E.03528
G1 X86.583 Y95.594 E.01735
G1 X85.633 Y96.197 E.03528
G1 X84.654 Y96.751 E.03528
G1 X84.163 Y97.006 E.01735
G1 X83.145 Y97.485 E.03528
G1 X82.104 Y97.912 E.03528
G1 X81.584 Y98.103 E.01735
G1 X80.511 Y98.451 E.03539
G1 X79.979 Y98.603 E.01735
G1 X78.885 Y98.869 E.03528
G1 X77.784 Y99.079 E.03516
G1 X76.673 Y99.233 E.03516
G1 X75.552 Y99.332 E.03528
G1 X75 Y99.36 E.01735
G1 X73.874 Y99.374 E.03528
G1 X72.754 Y99.332 E.03516
G1 X71.637 Y99.233 E.03516
G1 X70.522 Y99.078 E.03528
G1 X69.977 Y98.981 E.01735
G1 X68.878 Y98.743 E.03528
G1 X67.795 Y98.45 E.03516
G1 X66.725 Y98.103 E.03528
G1 X66.206 Y97.912 E.01735
G1 X65.165 Y97.485 E.03528
G1 X64.147 Y97.006 E.03528
G1 X63.655 Y96.751 E.01735
G1 X62.676 Y96.197 E.03528
G1 X61.729 Y95.596 E.03516
G1 X60.814 Y94.948 E.03516
G1 X59.929 Y94.253 E.03528
G1 X59.507 Y93.895 E.01735
G1 X58.678 Y93.135 E.03528
G1 X57.89 Y92.337 E.03516
G1 X57.143 Y91.501 E.03516
G1 X56.439 Y90.628 E.03516
G1 X55.78 Y89.72 E.03516
G1 X55.167 Y88.781 E.03516
G1 X54.602 Y87.812 E.03516
G1 X54.087 Y86.816 E.03516
G1 X53.622 Y85.796 E.03516
G1 X53.209 Y84.753 E.03517
G1 X52.849 Y83.691 E.03516
G1 X52.543 Y82.612 E.03516
G1 X52.292 Y81.519 E.03516
G1 X52.095 Y80.415 E.03516
G1 X51.955 Y79.302 E.03518
G1 X51.837 Y77.776 E.04799
G1 X47.053 Y77.776 E.14999
G1 X47.053 Y76.35 E.04471
G1 X51.837 Y76.35 E.14999
G1 X51.955 Y74.821 E.0481
G1 X52.018 Y74.27 E.01737
G1 X52.187 Y73.158 E.03528
G1 X52.411 Y72.059 E.03516
G1 X52.689 Y70.973 E.03516
G1 X53.023 Y69.902 E.03516
G1 X53.409 Y68.849 E.03516
G1 X53.848 Y67.817 E.03516
G1 X54.338 Y66.809 E.03516
G1 X54.878 Y65.826 E.03516
G1 X55.467 Y64.872 E.03516
G1 X56.104 Y63.948 E.03516
G1 X56.785 Y63.058 E.03516
G1 X57.513 Y62.2 E.03528
G1 X57.887 Y61.792 E.01735
G1 X58.678 Y60.991 E.03528
G1 X59.505 Y60.234 E.03516
G1 X60.369 Y59.519 E.03516
G1 X61.271 Y58.846 E.03528
G1 X61.726 Y58.532 E.01735
G1 X62.676 Y57.929 E.03528
G1 X63.655 Y57.375 E.03528
G1 X64.147 Y57.121 E.01735
G1 X65.165 Y56.642 E.03528
G1 X66.202 Y56.216 E.03516
G1 X67.26 Y55.842 E.03516
G1 X68.335 Y55.523 E.03516
G1 X69.424 Y55.258 E.03516
G1 X70.53 Y55.047 E.03528
G1 X71.635 Y54.893 E.035
G1 X72.754 Y54.794 E.03521
G1 X73.878 Y54.752 E.03528
G1 X74.434 Y54.752 E.01742
G1 X75.556 Y54.794 E.03521
G1 X76.673 Y54.893 E.03516
G1 X77.787 Y55.048 E.03528
G1 X78.336 Y55.145 E.01747
G1 X78.882 Y55.257 E.01747
G1 X79.975 Y55.523 E.03528
G1 X81.05 Y55.842 E.03516
G1 X82.107 Y56.216 E.03516
G1 X83.145 Y56.642 E.03516
G1 X84.163 Y57.121 E.03528
G1 X84.654 Y57.375 E.01735
G1 X85.637 Y57.931 E.03539
G1 X86.108 Y58.222 E.01735
G1 X87.042 Y58.848 E.03528
G1 X87.941 Y59.519 E.03516
G1 X88.805 Y60.234 E.03516
G1 X89.632 Y60.991 E.03516
G1 X90.42 Y61.789 E.03516
G1 X91.167 Y62.626 E.03516
G1 X91.871 Y63.499 E.03516
G1 X92.53 Y64.406 E.03516
G1 X93.143 Y65.345 E.03516
G1 X93.708 Y66.314 E.03517
G1 X94.223 Y67.31 E.03516
G1 X94.688 Y68.33 E.03516
G1 X95.101 Y69.373 E.03516
G1 X95.461 Y70.435 E.03516
G1 X95.767 Y71.514 E.03516
G1 X96.018 Y72.607 E.03516
G1 X96.214 Y73.711 E.03516
G1 X96.355 Y74.824 E.03518
G1 X96.469 Y76.29 E.04611
M204 S1000
G1 X96.822 Y75.973 F10800
M204 S800
;TYPE:External perimeter
G1 F1200
G1 X101.634 Y75.973 E.15087
G1 X101.634 Y78.153 E.06835
G1 X96.822 Y78.153 E.15087
G1 X96.73 Y79.341 E.03737
G1 X96.666 Y79.906 E.0178
G1 X96.495 Y81.034 E.0358
G1 X96.267 Y82.152 E.03576
G1 X95.983 Y83.256 E.03575
G1 X95.644 Y84.345 E.03576
G1 X95.251 Y85.416 E.03576
G1 X94.805 Y86.465 E.03576
G1 X94.307 Y87.491 E.03576
G1 X93.757 Y88.49 E.03576
G1 X93.158 Y89.461 E.03576
G1 X92.511 Y90.4 E.03576
G1 X91.818 Y91.305 E.03576
G1 X91.079 Y92.176 E.0358
G1 X90.696 Y92.595 E.0178
G1 X89.894 Y93.407 E.0358
G1 X89.053 Y94.177 E.03576
G1 X88.174 Y94.904 E.03576
G1 X87.259 Y95.587 E.0358
G1 X86.791 Y95.909 E.0178
G1 X85.828 Y96.52 E.0358
G1 X84.834 Y97.083 E.0358
G1 X84.33 Y97.344 E.0178
G1 X83.297 Y97.83 E.0358
G1 X82.241 Y98.263 E.0358
G1 X81.708 Y98.459 E.0178
G1 X80.621 Y98.812 E.03584
G1 X80.075 Y98.967 E.0178
G1 X78.965 Y99.237 E.0358
G1 X77.845 Y99.451 E.03576
G1 X76.716 Y99.608 E.03576
G1 X75.578 Y99.708 E.0358
G1 X75.011 Y99.737 E.01779
G1 X73.87 Y99.751 E.0358
G1 X72.73 Y99.708 E.03576
G1 X71.594 Y99.608 E.03576
G1 X70.463 Y99.451 E.0358
G1 X69.904 Y99.351 E.0178
G1 X68.789 Y99.109 E.0358
G1 X67.688 Y98.812 E.03576
G1 X66.602 Y98.459 E.0358
G1 X66.069 Y98.263 E.0178
G1 X65.013 Y97.83 E.0358
G1 X63.98 Y97.344 E.0358
G1 X63.476 Y97.083 E.0178
G1 X62.482 Y96.52 E.0358
G1 X61.519 Y95.909 E.03576
G1 X60.588 Y95.251 E.03576
G1 X59.691 Y94.545 E.0358
G1 X59.258 Y94.178 E.0178
G1 X58.416 Y93.407 E.0358
G1 X57.615 Y92.595 E.03576
G1 X56.855 Y91.745 E.03576
G1 X56.139 Y90.857 E.03576
G1 X55.469 Y89.934 E.03575
G1 X54.846 Y88.979 E.03576
G1 X54.272 Y87.994 E.03576
G1 X53.747 Y86.981 E.03575
G1 X53.275 Y85.943 E.03575
G1 X52.855 Y84.883 E.03576
G1 X52.489 Y83.803 E.03575
G1 X52.178 Y82.706 E.03576
G1 X51.922 Y81.595 E.03576
G1 X51.722 Y80.472 E.03576
G1 X51.58 Y79.34 E.03576
G1 X51.488 Y78.153 E.03733
G1 X46.676 Y78.153 E.15087
G1 X46.676 Y75.973 E.06835
G1 X51.488 Y75.973 E.15087
G1 X51.58 Y74.785 E.03737
G1 X51.644 Y74.221 E.0178
